X:1
T:Sham's Palace
R:reel
M:4/4
L:1/8
K:A
|:Ec~c2 cBAc|BEGB ADFA|~E2Ec cBAB|cffe fdfg|
|~a2ac cBAc|BEGB ADFA|~E2Ec cBAc|1 BEGB A2AF:|2 BEGB A2AB|]
|:cf~f2 dfaf|fcfa gfef|cf~f2 dfaf|gfeg fegb|
|~a2ac cBAc|BEGB ADFA|~E2Ec cBAc|1 BEGB A2AB:|2 BEGB A2AF|]